src/icon/category/category-budget/icon_category-budget_m_white.svg

<?xml version="1.0" encoding="UTF-8"?>
<svg width="24px" height="24px" viewBox="0 0 24 24" version="1.1" xmlns="http://www.w3.org/2000/svg" xmlns:xlink="http://www.w3.org/1999/xlink">
    <!-- Generator: Sketch 49.3 (51167) - http://www.bohemiancoding.com/sketch -->
    <title>icon_category-state_m_white</title>
    <desc>Created with Sketch.</desc>
    <defs></defs>
    <g id="set" stroke="none" stroke-width="1" fill="none" fill-rule="evenodd">
        <g id="mobile" transform="translate(-1022.000000, -1032.000000)">
            <g id="Headings" transform="translate(64.000000, 77.000000)"></g>
            <g id="icon_category_state__m__white" transform="translate(1022.000000, 1032.000000)">
                <rect id="Rectangle-path" x="0" y="0" width="24" height="24"></rect>
                <path d="M22.1418193,10.197 C21.6878193,10.634 18.8458193,12.144 16.5888193,11.928 C17.2458193,13.861 19.2288193,13.907 20.1798193,13.873 C18.9888193,15.108 17.6578193,15.355 16.4378193,15.388 L16.3118193,15.39 C15.3688193,15.39 14.3688193,15.122 14.3588193,15.119 L13.4668193,14.877 L13.1538193,15.746 C12.5928193,17.307 14.0698193,18.313 15.1488193,19.047 C15.6998193,19.422 16.6468193,20.051 16.5928193,20.384 C16.5158193,20.86 15.4498193,20.408 15.4498193,20.408 C15.4498193,20.408 15.0218193,21.835 13.5978193,20.776 C13.3388193,21.506 12.7968193,22.028 12.0098193,22.082 C11.2228193,22.028 10.6818193,21.506 10.4218193,20.776 C8.99781932,21.835 8.56981932,20.408 8.56981932,20.408 C8.56981932,20.408 7.50381932,20.86 7.42681932,20.384 C7.37281932,20.051 8.31981932,19.422 8.87081932,19.047 C9.94981932,18.313 11.4268193,17.307 10.8658193,15.746 L10.5528193,14.877 L9.66081932,15.119 C9.65081932,15.122 8.65081932,15.39 7.70781932,15.39 L7.58181932,15.388 C6.36181932,15.355 5.03081932,15.108 3.83981932,13.873 C4.79081932,13.907 6.77381932,13.861 7.43181932,11.928 C5.17381932,12.144 2.33181932,10.634 1.87781932,10.197 C1.18481932,8.675 1.08081932,7.49 1.15581932,6.363 C1.79581932,7.455 3.21481932,8.625 5.10681932,8.249 C3.53881932,5.729 1.97881932,3.656 2.76681932,2.634 C3.29081932,4.186 4.78081932,5.884 6.44381932,7.19 C6.49181932,7.894 6.57381932,8.263 6.76681932,8.717 C7.13381932,9.582 8.16481932,9.958 8.76481932,9.803 C9.13281932,9.709 9.49981932,9.418 9.79181932,8.894 C11.1638193,6.427 10.0098193,4.123 10.7018193,4.424 L12.0078193,7.45 L13.3188193,4.424 C14.0098193,4.123 12.8548193,6.427 14.2278193,8.894 C14.5188193,9.418 14.8878193,9.709 15.2548193,9.803 C15.8548193,9.958 16.8858193,9.582 17.2528193,8.717 C17.4458193,8.263 17.5278193,7.894 17.5758193,7.19 C19.2388193,5.884 20.7288193,4.186 21.2528193,2.634 C22.0408193,3.656 20.4808193,5.729 18.9128193,8.249 C20.8048193,8.625 22.2238193,7.455 22.8638193,6.363 C22.9388193,7.49 22.8348193,8.675 22.1418193,10.197 M22.9788193,3.312 C22.8318193,6.097 20.7238193,7.096 20.7238193,7.096 C20.7238193,7.096 22.1168193,5.038 22.3158193,3.635 C22.5388193,2.058 21.0168193,1 21.0168193,1 C20.4648193,2.806 19.2818193,4.365 17.7888193,5.709 C17.5128193,5.957 17.2308193,6.201 16.9348193,6.435 C16.3398193,6.906 16.6898193,7.668 16.3778193,8.232 C16.1118193,8.714 15.7898193,8.879 15.4738193,8.879 C14.8208193,8.879 13.6668193,6.19 14.7658193,3.758 C15.0248193,3.182 16.0848193,3.449 16.4098193,3.52 C17.0488193,3.661 16.6738193,4.163 16.6738193,4.163 C16.6738193,4.163 16.9608193,4.199 17.0518193,3.824 C17.1438193,3.444 16.4798193,3.053 16.4798193,3.053 C17.6008193,2.527 17.8408193,3.177 17.8408193,3.177 C18.4888193,2.049 17.7378193,1.844 16.9588193,1.843 C16.5398193,1.843 16.1538193,1.272 15.5828193,1.291 C14.8328193,1.315 13.8488193,1.917 12.8798193,1.759 C12.8798193,1.759 12.9808193,2.086 13.3298193,2.17 C13.3298193,2.17 13.1338193,2.471 13.0788193,2.66 C13.0338193,2.815 12.0118193,6.024 12.0098193,6.218 C12.0078193,6.024 10.9858193,2.815 10.9408193,2.66 C10.8858193,2.471 10.6898193,2.17 10.6898193,2.17 C11.0388193,2.086 11.1408193,1.759 11.1408193,1.759 C10.1708193,1.917 9.18681932,1.315 8.43681932,1.291 C7.86581932,1.272 7.47981932,1.843 7.06081932,1.843 C6.28181932,1.844 5.53081932,2.049 6.17881932,3.177 C6.17881932,3.177 6.41881932,2.527 7.53981932,3.053 C7.53981932,3.053 6.87581932,3.444 6.96781932,3.824 C7.05881932,4.199 7.34581932,4.163 7.34581932,4.163 C7.34581932,4.163 6.97081932,3.661 7.60981932,3.52 C7.93481932,3.449 8.99481932,3.182 9.25381932,3.758 C10.3528193,6.19 9.19881932,8.879 8.54581932,8.879 C8.22981932,8.879 7.90781932,8.714 7.64181932,8.232 C7.32981932,7.668 7.67981932,6.906 7.08481932,6.435 C6.78881932,6.201 6.50681932,5.957 6.23081932,5.709 C4.73781932,4.365 3.55481932,2.806 3.00281932,1 C3.00281932,1 1.48081932,2.058 1.70481932,3.635 C1.90281932,5.038 3.29581932,7.096 3.29581932,7.096 C3.29581932,7.096 1.18781932,6.097 1.04081932,3.312 C-0.428180678,6.062 0.337819322,9.25 1.00881932,10.7 C1.27081932,11.264 4.19581932,12.762 5.50881932,12.7 C5.50881932,12.7 3.47581932,13.502 1.37481932,11.825 C2.99981932,15.575 5.34381932,16.328 7.55481932,16.388 C8.69881932,16.42 9.92481932,16.084 9.92481932,16.084 C10.5178193,17.731 6.27481932,18.613 6.43181932,20.467 C6.50181932,21.325 7.39581932,21.682 8.13281932,21.419 C8.48081932,22.043 9.41581932,22.422 10.0918193,21.919 C10.3518193,22.456 11.2338193,23.078 12.0098193,23.078 C12.7858193,23.078 13.6678193,22.456 13.9278193,21.919 C14.6038193,22.422 15.5388193,22.043 15.8868193,21.419 C16.6238193,21.682 17.5178193,21.325 17.5888193,20.467 C17.7448193,18.613 13.5018193,17.731 14.0948193,16.084 C14.0948193,16.084 15.3208193,16.42 16.4648193,16.388 C18.6758193,16.328 21.0198193,15.575 22.6448193,11.825 C20.5438193,13.502 18.5108193,12.7 18.5108193,12.7 C19.8238193,12.762 22.7488193,11.264 23.0108193,10.7 C23.6818193,9.25 24.4478193,6.062 22.9788193,3.312" id="Fill-1" fill="#FFFFFF"></path>
            </g>
        </g>
    </g>
</svg>

<svg width="24" height="24" viewBox="0 0 24 24" xmlns="http://www.w3.org/2000/svg"><g fill="none" fill-rule="evenodd"><path d="M0 0h24v24H0z"/><path d="M22.142 10.197c-.454.437-3.296 1.947-5.553 1.731.657 1.933 2.64 1.979 3.59 1.945-1.19 1.235-2.521 1.482-3.741 1.515l-.126.002c-.943 0-1.943-.268-1.953-.271l-.892-.242-.313.869c-.561 1.561.916 2.567 1.995 3.301.55.375 1.498 1.004 1.444 1.337-.077.476-1.143.024-1.143.024s-.428 1.427-1.852.368c-.26.73-.801 1.252-1.588 1.306-.787-.054-1.328-.576-1.588-1.306-1.424 1.059-1.852-.368-1.852-.368s-1.066.452-1.143-.024c-.054-.333.893-.962 1.444-1.337 1.079-.734 2.556-1.74 1.995-3.301l-.313-.869-.892.242c-.01.003-1.01.271-1.953.271l-.126-.002c-1.22-.033-2.551-.28-3.742-1.515.95.034 2.934-.012 3.592-1.945-2.258.216-5.1-1.294-5.554-1.731-.693-1.522-.797-2.707-.722-3.834.64 1.092 2.059 2.262 3.95 1.886-1.567-2.52-3.127-4.593-2.34-5.615.525 1.552 2.015 3.25 3.678 4.556.048.704.13 1.073.323 1.527.367.865 1.398 1.241 1.998 1.086.368-.094.735-.385 1.027-.909 1.372-2.467.218-4.771.91-4.47l1.306 3.026 1.31-3.026c.692-.301-.463 2.003.91 4.47.29.524.66.815 1.027.909.6.155 1.63-.221 1.998-1.086.193-.454.275-.823.323-1.527 1.663-1.306 3.153-3.004 3.677-4.556.788 1.022-.772 3.095-2.34 5.615 1.892.376 3.31-.794 3.95-1.886.076 1.127-.028 2.312-.721 3.834m.837-6.885c-.147 2.785-2.255 3.784-2.255 3.784s1.393-2.058 1.592-3.461c.223-1.577-1.3-2.635-1.3-2.635-.551 1.806-1.734 3.365-3.227 4.709-.276.248-.558.492-.854.726-.595.471-.245 1.233-.557 1.797-.266.482-.588.647-.904.647-.653 0-1.807-2.689-.708-5.121.259-.576 1.319-.309 1.644-.238.639.141.264.643.264.643s.287.036.378-.339c.092-.38-.572-.771-.572-.771 1.12-.526 1.36.124 1.36.124.649-1.128-.102-1.333-.881-1.334-.42 0-.805-.571-1.376-.552-.75.024-1.734.626-2.703.468 0 0 .1.327.45.411 0 0-.196.301-.251.49-.045.155-1.067 3.364-1.07 3.558-.001-.194-1.023-3.403-1.068-3.558-.055-.189-.251-.49-.251-.49.349-.084.45-.411.45-.411-.97.158-1.953-.444-2.703-.468-.571-.019-.957.552-1.376.552-.78.001-1.53.206-.882 1.334 0 0 .24-.65 1.36-.124 0 0-.663.391-.571.771.09.375.378.339.378.339s-.375-.502.264-.643c.325-.071 1.385-.338 1.644.238 1.099 2.432-.055 5.121-.708 5.121-.316 0-.638-.165-.904-.647-.312-.564.038-1.326-.557-1.797a17.734 17.734 0 0 1-.854-.726C4.738 4.365 3.555 2.806 3.003 1c0 0-1.522 1.058-1.298 2.635.198 1.403 1.59 3.461 1.59 3.461s-2.107-.999-2.254-3.784C-.43 6.062.338 9.25 1.009 10.7c.262.564 3.187 2.062 4.5 2 0 0-2.033.802-4.134-.875 1.625 3.75 3.969 4.503 6.18 4.563 1.144.032 2.37-.304 2.37-.304.593 1.647-3.65 2.529-3.493 4.383.07.858.964 1.215 1.7.952.349.624 1.284 1.003 1.96.5.26.537 1.142 1.159 1.918 1.159s1.658-.622 1.918-1.159c.676.503 1.61.124 1.959-.5.737.263 1.63-.094 1.702-.952.156-1.854-4.087-2.736-3.494-4.383 0 0 1.226.336 2.37.304 2.21-.06 4.555-.813 6.18-4.563-2.101 1.677-4.134.875-4.134.875 1.313.062 4.238-1.436 4.5-2 .67-1.45 1.437-4.638-.032-7.388" fill="#FFF"/></g></svg>
